; generated by PrusaSlicer 2.9.4 on 2026-02-26 at 01:26:56 UTC

; 

; external perimeters extrusion width = 0.45mm
; perimeters extrusion width = 0.45mm
; infill extrusion width = 0.45mm
; solid infill extrusion width = 0.45mm
; top infill extrusion width = 0.40mm
; first layer extrusion width = 0.42mm

;TYPE:Custom
G28 ; Home all axes
G1 Z5 F5000 ; Lift nozzle
M190 S60 ; Wait for bed temp
M109 S200 ; Wait for extruder temp
G92 E0 ; Reset extruder
G1 E10 F200 ; Prime the nozzle
G21 ; set units to millimeters
G90 ; use absolute coordinates
M82 ; use absolute distances for extrusion
G92 E0
; Filament gcode
M107
;LAYER_CHANGE
;Z:0.35
;HEIGHT:0.35
G1 E-2 F2400
G92 E0
G1 Z.35 F6000
G1 X90.364 Y90.925
G1 E2 F2400
;TYPE:Skirt/Brim
;WIDTH:0.42
G1 F1200
G1 X92.099 Y89.552 E2.11104
G1 X95 Y88.828 E2.26109
G1 X105 Y88.828 E2.76295
G1 X107.177 Y89.224 E2.874
G1 X109.075 Y90.364 E2.98511
G1 X110.448 Y92.099 E3.09615
G1 X111.172 Y95 E3.2462
G1 X111.172 Y105 E3.74806
G1 X110.776 Y107.177 E3.85911
G1 X109.636 Y109.075 E3.97022
G1 X107.901 Y110.448 E4.08126
G1 X105 Y111.172 E4.23131
G1 X95 Y111.172 E4.73317
G1 X92.823 Y110.776 E4.84422
G1 X90.925 Y109.636 E4.95533
G1 X89.552 Y107.901 E5.06637
G1 X88.828 Y105 E5.21642
G1 X88.828 Y95 E5.71828
G1 X89.224 Y92.823 E5.82933
G1 X90.333 Y90.977 E5.93741
G1 E3.93741 F2400
G92 E0
G92 E0
G1 X104.1 Y104.1 F6000
G1 E2 F2400
;TYPE:Perimeter
;WIDTH:0.42
G1 F1200
G1 X95.9 Y104.1 E2.41152
G1 X95.9 Y95.9 E2.82304
G1 X104.1 Y95.9 E3.23456
G1 X104.1 Y104.04 E3.64307
G1 X104.445 Y104.445 F6000
G1 F1200
G1 X95.555 Y104.445 E4.08922
G1 X95.555 Y95.555 E4.53537
G1 X104.445 Y95.555 E4.98152
G1 X104.445 Y104.385 E5.42466
G1 X104.79 Y104.79 F6000
;TYPE:External perimeter
G1 F1200
G1 X95.21 Y104.79 E5.90544
G1 X95.21 Y95.21 E6.38622
G1 X104.79 Y95.21 E6.867
G1 X104.79 Y104.73 E7.34477
G1 X104.394 Y104.789 F6000
G1 E5.34477 F2400
G92 E0
G1 X103.279 Y96.003 F6000
G1 E2 F2400
;TYPE:Solid infill
;WIDTH:0.429901
G1 F1200
G1 X103.842 Y96.566 E2.04111
G1 X103.842 Y97.068 E2.06703
G1 X102.932 Y96.158 E2.13347
G1 X102.43 Y96.158 E2.15939
G1 X103.842 Y97.57 E2.26248
G1 X103.842 Y98.071 E2.28834
G1 X101.929 Y96.158 E2.42801
G1 X101.427 Y96.158 E2.45393
G1 X103.842 Y98.573 E2.63025
G1 X103.842 Y99.075 E2.65617
G1 X100.925 Y96.158 E2.86914
G1 X100.423 Y96.158 E2.89506
G1 X103.842 Y99.577 E3.14468
G1 X103.842 Y100.078 E3.17054
G1 X99.922 Y96.158 E3.45674
G1 X99.42 Y96.158 E3.48266
G1 X103.842 Y100.58 E3.80551
G1 X103.842 Y101.082 E3.83143
G1 X98.918 Y96.158 E4.19094
G1 X98.416 Y96.158 E4.21686
G1 X103.842 Y101.584 E4.61302
G1 X103.842 Y102.085 E4.63888
G1 X97.915 Y96.158 E5.07162
G1 X97.413 Y96.158 E5.09754
G1 X103.842 Y102.587 E5.56693
G1 X103.842 Y103.089 E5.59285
G1 X96.911 Y96.158 E6.09889
G1 X96.409 Y96.158 E6.12481
G1 X103.842 Y103.591 E6.6675
G1 X103.842 Y103.842 E6.68046
G1 X103.591 Y103.842 E6.69342
G1 X96.158 Y96.409 E7.23611
G1 X96.158 Y96.911 E7.26203
G1 X103.089 Y103.842 E7.76807
G1 X102.587 Y103.842 E7.79399
G1 X96.158 Y97.413 E8.26338
G1 X96.158 Y97.915 E8.2893
G1 X102.085 Y103.842 E8.72204
G1 X101.584 Y103.842 E8.7479
G1 X96.158 Y98.416 E9.14406
G1 X96.158 Y98.918 E9.16998
G1 X101.082 Y103.842 E9.52949
G1 X100.58 Y103.842 E9.55541
G1 X96.158 Y99.42 E9.87826
G1 X96.158 Y99.922 E9.90418
G1 X100.078 Y103.842 E10.19038
G1 X99.577 Y103.842 E10.21624
G1 X96.158 Y100.423 E10.46586
G1 X96.158 Y100.925 E10.49178
G1 X99.075 Y103.842 E10.70475
G1 X98.573 Y103.842 E10.73067
G1 X96.158 Y101.427 E10.90699
G1 X96.158 Y101.929 E10.93291
G1 X98.071 Y103.842 E11.07258
G1 X97.57 Y103.842 E11.09844
G1 X96.158 Y102.43 E11.20153
G1 X96.158 Y102.932 E11.22745
G1 X97.068 Y103.842 E11.29389
G1 X96.566 Y103.842 E11.31981
G1 X96.003 Y103.279 E11.36092
;LAYER_CHANGE
;Z:0.65
;HEIGHT:0.3
G1 E9.36092 F2400
G92 E0
G1 Z.65 F6000
G1 X104.004 Y104.004
G1 E2 F2400
;TYPE:Perimeter
;WIDTH:0.45
G1 F1500
G1 X95.996 Y104.004 E2.38516
G1 X95.996 Y95.996 E2.77032
G1 X104.004 Y95.996 E3.15548
G1 X104.004 Y103.944 E3.53775
G1 X104.389 Y104.389 F6000
G1 F1500
G1 X95.611 Y104.389 E3.95994
G1 X95.611 Y95.611 E4.38213
G1 X104.389 Y95.611 E4.80432
G1 X104.389 Y104.329 E5.22363
G1 X104.775 Y104.775 F6000
;TYPE:External perimeter
G1 F1500
G1 X95.225 Y104.775 E5.68295
G1 X95.225 Y95.225 E6.14227
G1 X104.775 Y95.225 E6.60159
G1 X104.775 Y104.715 E7.05803
G1 X104.379 Y104.774 F6000
G1 E5.05803 F2400
G92 E0
G1 X96.39 Y96.317 F6000
G1 E2 F2400
;TYPE:Solid infill
;WIDTH:0.543559
G1 F1200
G1 X96.348 Y96.274 E2.00359
G1 X96.29 Y96.29 E2.00719
G1 X96.274 Y96.348 E2.01079
G1 X96.317 Y96.39 E2.01438
G1 X96.375 Y96.375 E2.01796
;WIDTH:0.45
G1 X96.991 Y96.285 E2.0479
G1 X96.162 Y97.128 E2.10477
;WIDTH:0.404381
G1 X96.091 Y97.109 E2.10789
G1 X96.11 Y97.18 E2.11101
G1 X96.151 Y97.169 E2.11281
;WIDTH:0.45
G1 X96.285 Y97.536 E2.1316
G1 X97.536 Y96.285 E2.21669
G1 X98.081 Y96.285 E2.2429
G1 X96.285 Y98.081 E2.36506
G1 X96.285 Y98.627 E2.39132
G1 X98.627 Y96.285 E2.55062
G1 X99.172 Y96.285 E2.57683
G1 X96.285 Y99.172 E2.7732
G1 X96.285 Y99.717 E2.79941
G1 X99.717 Y96.285 E3.03285
G1 X100.263 Y96.285 E3.05911
G1 X96.285 Y100.263 E3.32969
G1 X96.285 Y100.808 E3.3559
G1 X100.808 Y96.285 E3.66355
G1 X101.353 Y96.285 E3.68976
G1 X96.285 Y101.353 E4.03448
G1 X96.285 Y101.899 E4.06074
G1 X101.899 Y96.285 E4.4426
G1 X102.444 Y96.285 E4.46881
G1 X96.285 Y102.444 E4.88774
G1 X96.285 Y102.989 E4.91395
G1 X102.989 Y96.285 E5.36995
G1 X103.535 Y96.285 E5.39621
G1 X96.285 Y103.535 E5.88935
G1 X96.224 Y103.836 E5.90412
;WIDTH:0.404381
G1 X96.183 Y103.847 E5.90592
G1 X96.164 Y103.776 E5.90904
G1 X96.235 Y103.795 E5.91216
;WIDTH:0.45
G1 X96.651 Y103.715 E5.93253
G1 X103.715 Y96.651 E6.41301
G1 X103.715 Y97.196 E6.43922
G1 X97.196 Y103.715 E6.88263
G1 X97.742 Y103.715 E6.90889
G1 X103.715 Y97.742 E7.31517
G1 X103.715 Y98.287 E7.34138
G1 X98.287 Y103.715 E7.71059
G1 X98.832 Y103.715 E7.7368
G1 X103.715 Y98.832 E8.06894
G1 X103.715 Y99.378 E8.0952
G1 X99.378 Y103.715 E8.3902
G1 X99.923 Y103.715 E8.41641
G1 X103.715 Y99.923 E8.67434
G1 X103.715 Y100.468 E8.70055
G1 X100.468 Y103.715 E8.92141
G1 X101.014 Y103.715 E8.94767
G1 X103.715 Y101.014 E9.13139
G1 X103.715 Y101.559 E9.1576
G1 X101.559 Y103.715 E9.30425
G1 X101.452 Y103.868 E9.31323
;WIDTH:0.404381
G1 X101.381 Y103.849 E9.31635
G1 X101.4 Y103.92 E9.31947
G1 X101.441 Y103.909 E9.32127
G1 E7.32127 F2400
G92 E0
G1 X103.578 Y102.241 F6000
G1 E2 F2400
;WIDTH:0.45
G1 F1200
G1 X102.104 Y103.715 E2.10026
G1 X103.715 Y103.715 E2.17774
G1 X103.715 Y102.104 E2.25522
G1 X103.31 Y103.225 F6000
;WIDTH:0.621941
G1 F1200
G1 X103.261 Y103.176 E2.26004
G1 X103.194 Y103.194 E2.26486
G1 X103.176 Y103.261 E2.26968
G1 X103.225 Y103.31 E2.2745
G1 X103.292 Y103.292 E2.27932
;LAYER_CHANGE
;Z:0.95
;HEIGHT:0.3
G1 Z.95 F6000
G1 X104.004 Y104.004
;TYPE:Perimeter
;WIDTH:0.45
G1 F1500
G1 X95.996 Y104.004 E2.66448
G1 X95.996 Y95.996 E3.04964
G1 X104.004 Y95.996 E3.4348
G1 X104.004 Y103.944 E3.81707
G1 X104.389 Y104.389 F6000
G1 F1500
G1 X95.611 Y104.389 E4.23926
G1 X95.611 Y95.611 E4.66145
G1 X104.389 Y95.611 E5.08364
G1 X104.389 Y104.329 E5.50295
G1 X104.775 Y104.775 F6000
;TYPE:External perimeter
G1 F1500
G1 X95.225 Y104.775 E5.96227
G1 X95.225 Y95.225 E6.42159
G1 X104.775 Y95.225 E6.88091
G1 X104.775 Y104.715 E7.33735
G1 X104.379 Y104.774 F6000
G1 E5.33735 F2400
G92 E0
G1 X96.317 Y103.61 F6000
G1 E2 F2400
;TYPE:Solid infill
;WIDTH:0.543559
G1 F1200
G1 X96.274 Y103.652 E2.00359
G1 X96.29 Y103.71 E2.00719
G1 X96.348 Y103.726 E2.01079
G1 X96.39 Y103.683 E2.01438
G1 X96.375 Y103.625 E2.01796
;WIDTH:0.45
G1 X96.285 Y103.009 E2.0479
G1 X97.128 Y103.838 E2.10477
;WIDTH:0.404381
G1 X97.109 Y103.909 E2.10789
G1 X97.18 Y103.89 E2.11101
G1 X97.169 Y103.849 E2.11281
;WIDTH:0.45
G1 X97.536 Y103.715 E2.1316
G1 X96.285 Y102.464 E2.21669
G1 X96.285 Y101.919 E2.2429
G1 X98.081 Y103.715 E2.36506
G1 X98.627 Y103.715 E2.39132
G1 X96.285 Y101.373 E2.55062
G1 X96.285 Y100.828 E2.57683
G1 X99.172 Y103.715 E2.7732
G1 X99.717 Y103.715 E2.79941
G1 X96.285 Y100.283 E3.03285
G1 X96.285 Y99.737 E3.05911
G1 X100.263 Y103.715 E3.32969
G1 X100.808 Y103.715 E3.3559
G1 X96.285 Y99.192 E3.66355
G1 X96.285 Y98.647 E3.68976
G1 X101.353 Y103.715 E4.03448
G1 X101.899 Y103.715 E4.06074
G1 X96.285 Y98.101 E4.4426
G1 X96.285 Y97.556 E4.46881
G1 X102.444 Y103.715 E4.88774
G1 X102.989 Y103.715 E4.91395
G1 X96.285 Y97.011 E5.36995
G1 X96.183 Y96.153 F6000
;WIDTH:0.404381
G1 F1200
G1 X96.164 Y96.224 E5.37307
G1 X96.235 Y96.205 E5.37619
G1 X96.224 Y96.164 E5.37799
;WIDTH:0.45
G1 X96.285 Y96.465 E5.39276
G1 X103.535 Y103.715 E5.8859
G1 X103.795 Y103.765 E5.89863
;WIDTH:0.404381
G1 X103.776 Y103.836 E5.90175
G1 X103.847 Y103.817 E5.90487
G1 X103.836 Y103.776 E5.90667
;WIDTH:0.45
G1 X103.715 Y103.349 E5.92802
G1 X96.651 Y96.285 E6.4085
G1 X97.196 Y96.285 E6.43471
G1 X103.715 Y102.804 E6.87812
G1 X103.715 Y102.258 E6.90438
G1 X97.742 Y96.285 E7.31066
G1 X98.287 Y96.285 E7.33687
G1 X103.715 Y101.713 E7.70608
G1 X103.715 Y101.168 E7.73229
G1 X98.832 Y96.285 E8.06443
G1 X99.378 Y96.285 E8.09069
G1 X103.715 Y100.622 E8.38569
G1 X103.715 Y100.077 E8.4119
G1 X99.923 Y96.285 E8.66983
G1 X100.468 Y96.285 E8.69604
G1 X103.715 Y99.532 E8.9169
G1 X103.715 Y98.986 E8.94316
G1 X101.014 Y96.285 E9.12688
G1 X101.4 Y96.08 E9.1479
;WIDTH:0.404381
G1 X101.381 Y96.151 E9.15102
G1 X101.452 Y96.132 E9.15414
G1 X101.441 Y96.091 E9.15594
;WIDTH:0.45
G1 X101.559 Y96.285 E9.16686
G1 X103.715 Y98.441 E9.31351
G1 X103.909 Y98.559 E9.32443
;WIDTH:0.404381
G1 X103.92 Y98.6 E9.32623
G1 X103.849 Y98.619 E9.32935
G1 X103.868 Y98.548 E9.33247
G1 E7.33247 F2400
G92 E0
G1 X102.241 Y96.422 F6000
G1 E2 F2400
;WIDTH:0.45
G1 F1200
G1 X103.715 Y97.896 E2.10026
G1 X103.715 Y96.285 E2.17774
G1 X102.104 Y96.285 E2.25522
G1 X103.225 Y96.69 F6000
;WIDTH:0.621943
G1 F1200
G1 X103.176 Y96.739 E2.26004
G1 X103.194 Y96.806 E2.26486
G1 X103.261 Y96.824 E2.26968
G1 X103.31 Y96.775 E2.2745
G1 X103.292 Y96.708 E2.27932
M106 S229.5
;LAYER_CHANGE
;Z:1.25
;HEIGHT:0.3
G1 E.27932 F2400
G92 E0
G1 Z1.25 F6000
G1 X104.004 Y104.004
G1 E2 F2400
;TYPE:Perimeter
;WIDTH:0.45
G1 F1500
G1 X95.996 Y104.004 E2.38516
G1 X95.996 Y95.996 E2.77032
G1 X104.004 Y95.996 E3.15548
G1 X104.004 Y103.944 E3.53775
G1 X104.389 Y104.389 F6000
G1 F1500
G1 X95.611 Y104.389 E3.95994
G1 X95.611 Y95.611 E4.38213
G1 X104.389 Y95.611 E4.80432
G1 X104.389 Y104.329 E5.22363
G1 X104.775 Y104.775 F6000
;TYPE:External perimeter
G1 F1500
G1 X95.225 Y104.775 E5.68295
G1 X95.225 Y95.225 E6.14227
G1 X104.775 Y95.225 E6.60159
G1 X104.775 Y104.715 E7.05803
G1 X104.379 Y104.774 F6000
G1 E5.05803 F2400
G92 E0
G1 X96.39 Y96.317 F6000
G1 E2 F2400
;TYPE:Solid infill
;WIDTH:0.543559
G1 F1200
G1 X96.348 Y96.274 E2.00359
G1 X96.29 Y96.29 E2.00719
G1 X96.274 Y96.348 E2.01079
G1 X96.317 Y96.39 E2.01438
G1 X96.375 Y96.375 E2.01796
;WIDTH:0.45
G1 X96.991 Y96.285 E2.0479
G1 X96.162 Y97.128 E2.10477
;WIDTH:0.404381
G1 X96.091 Y97.109 E2.10789
G1 X96.11 Y97.18 E2.11101
G1 X96.151 Y97.169 E2.11281
;WIDTH:0.45
G1 X96.285 Y97.536 E2.1316
G1 X97.536 Y96.285 E2.21669
G1 X98.081 Y96.285 E2.2429
G1 X96.285 Y98.081 E2.36506
G1 X96.285 Y98.627 E2.39132
G1 X98.627 Y96.285 E2.55062
G1 X99.172 Y96.285 E2.57683
G1 X96.285 Y99.172 E2.7732
G1 X96.285 Y99.717 E2.79941
G1 X99.717 Y96.285 E3.03285
G1 X100.263 Y96.285 E3.05911
G1 X96.285 Y100.263 E3.32969
G1 X96.285 Y100.808 E3.3559
G1 X100.808 Y96.285 E3.66355
G1 X101.353 Y96.285 E3.68976
G1 X96.285 Y101.353 E4.03448
G1 X96.285 Y101.899 E4.06074
G1 X101.899 Y96.285 E4.4426
G1 X102.444 Y96.285 E4.46881
G1 X96.285 Y102.444 E4.88774
G1 X96.285 Y102.989 E4.91395
G1 X102.989 Y96.285 E5.36995
G1 X103.535 Y96.285 E5.39621
G1 X96.285 Y103.535 E5.88935
G1 X96.224 Y103.836 E5.90412
;WIDTH:0.404381
G1 X96.183 Y103.847 E5.90592
G1 X96.164 Y103.776 E5.90904
G1 X96.235 Y103.795 E5.91216
;WIDTH:0.45
G1 X96.651 Y103.715 E5.93253
G1 X103.715 Y96.651 E6.41301
G1 X103.715 Y97.196 E6.43922
G1 X97.196 Y103.715 E6.88263
G1 X97.742 Y103.715 E6.90889
G1 X103.715 Y97.742 E7.31517
G1 X103.715 Y98.287 E7.34138
G1 X98.287 Y103.715 E7.71059
G1 X98.832 Y103.715 E7.7368
G1 X103.715 Y98.832 E8.06894
G1 X103.715 Y99.378 E8.0952
G1 X99.378 Y103.715 E8.3902
G1 X99.923 Y103.715 E8.41641
G1 X103.715 Y99.923 E8.67434
G1 X103.715 Y100.468 E8.70055
G1 X100.468 Y103.715 E8.92141
G1 X101.014 Y103.715 E8.94767
G1 X103.715 Y101.014 E9.13139
G1 X103.715 Y101.559 E9.1576
G1 X101.559 Y103.715 E9.30425
G1 X101.452 Y103.868 E9.31323
;WIDTH:0.404381
G1 X101.381 Y103.849 E9.31635
G1 X101.4 Y103.92 E9.31947
G1 X101.441 Y103.909 E9.32127
G1 E7.32127 F2400
G92 E0
G1 X103.578 Y102.241 F6000
G1 E2 F2400
;WIDTH:0.45
G1 F1200
G1 X102.104 Y103.715 E2.10026
G1 X103.715 Y103.715 E2.17774
G1 X103.715 Y102.104 E2.25522
G1 X103.31 Y103.225 F6000
;WIDTH:0.621941
G1 F1200
G1 X103.261 Y103.176 E2.26004
G1 X103.194 Y103.194 E2.26486
G1 X103.176 Y103.261 E2.26968
G1 X103.225 Y103.31 E2.2745
G1 X103.292 Y103.292 E2.27932
M106 S232.05
;LAYER_CHANGE
;Z:1.55
;HEIGHT:0.3
G1 Z1.55 F6000
G1 X104.004 Y104.004
;TYPE:Perimeter
;WIDTH:0.45
G1 F1500
G1 X95.996 Y104.004 E2.66448
G1 X95.996 Y95.996 E3.04964
G1 X104.004 Y95.996 E3.4348
G1 X104.004 Y103.944 E3.81707
G1 X104.389 Y104.389 F6000
G1 F1500
G1 X95.611 Y104.389 E4.23926
G1 X95.611 Y95.611 E4.66145
G1 X104.389 Y95.611 E5.08364
G1 X104.389 Y104.329 E5.50295
G1 X104.775 Y104.775 F6000
;TYPE:External perimeter
G1 F1500
G1 X95.225 Y104.775 E5.96227
G1 X95.225 Y95.225 E6.42159
G1 X104.775 Y95.225 E6.88091
G1 X104.775 Y104.715 E7.33735
G1 X104.379 Y104.774 F6000
G1 E5.33735 F2400
G92 E0
G1 X96.317 Y103.61 F6000
G1 E2 F2400
;TYPE:Solid infill
;WIDTH:0.543559
G1 F1200
G1 X96.274 Y103.652 E2.00359
G1 X96.29 Y103.71 E2.00719
G1 X96.348 Y103.726 E2.01079
G1 X96.39 Y103.683 E2.01438
G1 X96.375 Y103.625 E2.01796
;WIDTH:0.45
G1 X96.285 Y103.009 E2.0479
G1 X97.128 Y103.838 E2.10477
;WIDTH:0.404381
G1 X97.109 Y103.909 E2.10789
G1 X97.18 Y103.89 E2.11101
G1 X97.169 Y103.849 E2.11281
;WIDTH:0.45
G1 X97.536 Y103.715 E2.1316
G1 X96.285 Y102.464 E2.21669
G1 X96.285 Y101.919 E2.2429
G1 X98.081 Y103.715 E2.36506
G1 X98.627 Y103.715 E2.39132
G1 X96.285 Y101.373 E2.55062
G1 X96.285 Y100.828 E2.57683
G1 X99.172 Y103.715 E2.7732
G1 X99.717 Y103.715 E2.79941
G1 X96.285 Y100.283 E3.03285
G1 X96.285 Y99.737 E3.05911
G1 X100.263 Y103.715 E3.32969
G1 X100.808 Y103.715 E3.3559
G1 X96.285 Y99.192 E3.66355
G1 X96.285 Y98.647 E3.68976
G1 X101.353 Y103.715 E4.03448
G1 X101.899 Y103.715 E4.06074
G1 X96.285 Y98.101 E4.4426
G1 X96.285 Y97.556 E4.46881
G1 X102.444 Y103.715 E4.88774
G1 X102.989 Y103.715 E4.91395
G1 X96.285 Y97.011 E5.36995
G1 X96.183 Y96.153 F6000
;WIDTH:0.404381
G1 F1200
G1 X96.164 Y96.224 E5.37307
G1 X96.235 Y96.205 E5.37619
G1 X96.224 Y96.164 E5.37799
;WIDTH:0.45
G1 X96.285 Y96.465 E5.39276
G1 X103.535 Y103.715 E5.8859
G1 X103.795 Y103.765 E5.89863
;WIDTH:0.404381
G1 X103.776 Y103.836 E5.90175
G1 X103.847 Y103.817 E5.90487
G1 X103.836 Y103.776 E5.90667
;WIDTH:0.45
G1 X103.715 Y103.349 E5.92802
G1 X96.651 Y96.285 E6.4085
G1 X97.196 Y96.285 E6.43471
G1 X103.715 Y102.804 E6.87812
G1 X103.715 Y102.258 E6.90438
G1 X97.742 Y96.285 E7.31066
G1 X98.287 Y96.285 E7.33687
G1 X103.715 Y101.713 E7.70608
G1 X103.715 Y101.168 E7.73229
G1 X98.832 Y96.285 E8.06443
G1 X99.378 Y96.285 E8.09069
G1 X103.715 Y100.622 E8.38569
G1 X103.715 Y100.077 E8.4119
G1 X99.923 Y96.285 E8.66983
G1 X100.468 Y96.285 E8.69604
G1 X103.715 Y99.532 E8.9169
G1 X103.715 Y98.986 E8.94316
G1 X101.014 Y96.285 E9.12688
G1 X101.4 Y96.08 E9.1479
;WIDTH:0.404381
G1 X101.381 Y96.151 E9.15102
G1 X101.452 Y96.132 E9.15414
G1 X101.441 Y96.091 E9.15594
;WIDTH:0.45
G1 X101.559 Y96.285 E9.16686
G1 X103.715 Y98.441 E9.31351
G1 X103.909 Y98.559 E9.32443
;WIDTH:0.404381
G1 X103.92 Y98.6 E9.32623
G1 X103.849 Y98.619 E9.32935
G1 X103.868 Y98.548 E9.33247
G1 E7.33247 F2400
G92 E0
G1 X102.241 Y96.422 F6000
G1 E2 F2400
;WIDTH:0.45
G1 F1200
G1 X103.715 Y97.896 E2.10026
G1 X103.715 Y96.285 E2.17774
G1 X102.104 Y96.285 E2.25522
G1 X103.225 Y96.69 F6000
;WIDTH:0.621943
G1 F1200
G1 X103.176 Y96.739 E2.26004
G1 X103.194 Y96.806 E2.26486
G1 X103.261 Y96.824 E2.26968
G1 X103.31 Y96.775 E2.2745
