; generated by PrusaSlicer 2.9.4 on 2026-03-15 at 04:06:05 UTC

; 

; external perimeters extrusion width = 0.40mm
; perimeters extrusion width = 0.40mm
; infill extrusion width = 0.40mm
; solid infill extrusion width = 0.40mm
; top infill extrusion width = 0.40mm
; first layer extrusion width = 0.40mm

;TYPE:Custom
;Filament_Material : PLA     ; required by 3DWOX cartridge validator
;MATERIAL: PLA              ; required by 3DWOX cartridge validator
;MATERIAL_CARTRIDGE_0: PLA  ; required by 3DWOX cartridge validator
G90                                        ; absolute coordinates
M140 S60        ; set bed temp (no wait)
M190 S60        ; wait for bed temp
M104 S220            ; set nozzle temp (no wait)
M109 S220            ; wait for nozzle temp
G28                                        ; home all axes
G1 Z2 F5000                                ; lift bed to safe height
M82                                        ; absolute extruder mode
M117                                       ; clear LCD message
G21 ; set units to millimeters
G90 ; use absolute coordinates
M82 ; use absolute distances for extrusion
G92 E0
M107
;LAYER_CHANGE
;Z:0.2
;HEIGHT:0.2
G1 E-6 F1800
G92 E0
G1 Z.2 F7800
G1 X74.896 Y54.642
G1 E6 F1800
;TYPE:Skirt/Brim
;WIDTH:0.4
G1 F600
G1 X75.565 Y53.73 E6.03358
G1 X78.808 Y50.498 E6.16952
G1 X79.684 Y49.87 E6.20152
G1 X80.689 Y49.362 E6.23496
G1 X81.761 Y49.018 E6.26839
G1 X82.717 Y48.859 E6.29716
G1 X117.07 Y48.84 E7.31715
G1 X118.283 Y49.028 E7.3536
G1 X119.362 Y49.383 E7.38733
G1 X120.395 Y49.919 E7.42188
G1 X121.662 Y50.924 E7.4699
G1 X124.076 Y53.338 E7.57126
G1 X125.077 Y54.598 E7.61904
G1 X125.659 Y55.741 E7.65712
G1 X125.959 Y56.663 E7.68591
G1 X126.137 Y57.656 E7.71586
G1 X133.649 Y134.398 E10.00532
G1 X133.679 Y144.5 E10.30526
G1 X133.282 Y146.678 E10.37099
G1 X132.142 Y148.577 E10.43675
G1 X130.407 Y149.952 E10.50248
G1 X127.5 Y150.679 E10.59145
G1 X72.5 Y150.679 E12.22447
G1 X70.322 Y150.282 E12.2902
G1 X68.423 Y149.142 E12.35596
G1 X67.048 Y147.407 E12.42169
G1 X66.321 Y144.5 E12.51066
G1 X66.321 Y135 E12.79273
G1 X73.862 Y57.664 E15.09983
G1 X74.028 Y56.717 E15.12838
G1 X74.38 Y55.646 E15.16185
G1 X74.869 Y54.695 E15.1936
G1 E9.1936 F1800
G92 E0
G92 E0
G1 X101.574 Y95.239 F7800
G1 E6 F1800
;TYPE:External perimeter
;WIDTH:0.52146
G1 F600
G1 X101.594 Y95.239 E6.0008
G1 X103.119 Y97.88 E6.12215
;WIDTH:0.558474
G1 X103.153 Y97.94 E6.12511
;WIDTH:0.595489
G1 X103.188 Y98 E6.1283
G1 X102.425 Y99.321 E6.19839
;WIDTH:0.558474
G1 X101.663 Y100.641 E6.26373
;WIDTH:0.521459
G1 X101.594 Y100.761 E6.26924
G1 X98.544 Y100.761 E6.3906
;WIDTH:0.559388
G1 X98.475 Y100.761 E6.39356
;WIDTH:0.595489
G1 X98.406 Y100.761 E6.39673
G1 X96.812 Y98 E6.54321
G1 X97.575 Y96.679 E6.6133
;WIDTH:0.558475
G1 X98.337 Y95.359 E6.67864
;WIDTH:0.52146
G1 X98.406 Y95.239 E6.68415
G1 X101.514 Y95.239 E6.80782
G1 X101.768 Y95.548 F7800
G1 E.80782 F1800
G92 E0
G1 X93.2 Y103.743 F7800
G1 E6 F1800
;WIDTH:0.595488
G1 F600
G1 X91.616 Y101 E6.14553
G1 X93.21 Y98.239 E6.29201
G1 X96.398 Y98.239 E6.43849
G1 X97.16 Y99.56 E6.50856
;WIDTH:0.558475
G1 X97.923 Y100.88 E6.57392
;WIDTH:0.559389
G1 X97.957 Y100.94 E6.57688
;WIDTH:0.595489
G1 X97.992 Y101 E6.58007
G1 X97.229 Y102.321 E6.65016
;WIDTH:0.558474
G1 X96.467 Y103.641 E6.7155
;WIDTH:0.521459
G1 X96.398 Y103.761 E6.72101
G1 X93.348 Y103.761 E6.84237
;WIDTH:0.558474
G1 X93.279 Y103.761 E6.84533
;WIDTH:0.595488
G1 X93.25 Y103.761 E6.84666
G1 X93.023 Y103.431 F7800
G1 E.84666 F1800
G92 E0
G1 X93.2 Y92.257 F7800
G1 E6 F1800
G1 F600
G1 X93.21 Y92.239 E6.00095
G1 X94.804 Y92.239 E6.07419
;WIDTH:0.558474
G1 X96.398 Y92.239 E6.14252
;WIDTH:0.52146
G1 X97.923 Y94.88 E6.26387
;WIDTH:0.558474
G1 X97.957 Y94.94 E6.26683
;WIDTH:0.595489
G1 X97.992 Y95 E6.27002
G1 X97.229 Y96.321 E6.34011
;WIDTH:0.558474
G1 X96.467 Y97.641 E6.40545
;WIDTH:0.523286
G1 X96.398 Y97.761 E6.41098
;WIDTH:0.52146
G1 X93.348 Y97.761 E6.53234
;WIDTH:0.558475
G1 X93.279 Y97.761 E6.5353
;WIDTH:0.595489
G1 X93.21 Y97.761 E6.53847
G1 X92.448 Y96.44 E6.60854
;WIDTH:0.558474
G1 X91.685 Y95.12 E6.6739
;WIDTH:0.521459
G1 X91.616 Y95 E6.67941
G1 X93.141 Y92.359 E6.80076
;WIDTH:0.558474
G1 X93.17 Y92.309 E6.80324
G1 X93.564 Y92.243 F7800
G1 E.80324 F1800
G92 E0
G1 X98.396 Y89.257 F7800
G1 E6 F1800
;WIDTH:0.558475
G1 F600
G1 X98.406 Y89.239 E6.00088
;WIDTH:0.52146
G1 X101.456 Y89.239 E6.12224
;WIDTH:0.558475
G1 X101.525 Y89.239 E6.1252
;WIDTH:0.59549
G1 X101.594 Y89.239 E6.12837
G1 X102.356 Y90.56 E6.19844
;WIDTH:0.558475
G1 X103.153 Y91.94 E6.26676
;WIDTH:0.595488
G1 X103.188 Y92 E6.26995
G1 X102.425 Y93.321 E6.34004
;WIDTH:0.558474
G1 X101.663 Y94.641 E6.40538
;WIDTH:0.521459
G1 X101.594 Y94.761 E6.41089
G1 X98.544 Y94.761 E6.53225
;WIDTH:0.558474
G1 X98.475 Y94.761 E6.53521
;WIDTH:0.595489
G1 X98.406 Y94.761 E6.53838
;WIDTH:0.558475
G1 X97.609 Y93.38 E6.60673
;WIDTH:0.59549
G1 X96.812 Y92 E6.67995
G1 X97.609 Y90.62 E6.75317
;WIDTH:0.558475
G1 X98.366 Y89.309 E6.81807
G1 X98.761 Y89.243 F7800
G1 X97.982 Y89.017
;WIDTH:0.521459
G1 F600
G1 X96.398 Y91.761 E6.94414
G1 X93.348 Y91.761 E7.0655
;WIDTH:0.558474
G1 X93.279 Y91.761 E7.06846
;WIDTH:0.595488
G1 X93.21 Y91.761 E7.07163
G1 X91.616 Y89 E7.21811
G1 X92.413 Y87.62 E7.29133
;WIDTH:0.558474
G1 X93.21 Y86.239 E7.35968
;WIDTH:0.521458
G1 X96.398 Y86.239 E7.48653
G1 X97.923 Y88.88 E7.60788
;WIDTH:0.523288
G1 X97.972 Y88.966 E7.61183
G1 X97.799 Y89.326 F7800
G1 E1.61183 F1800
G92 E0
G1 X103.178 Y85.983 F7800
G1 E6 F1800
;WIDTH:0.521458
G1 F600
G1 X103.188 Y86 E6.00078
G1 X101.594 Y88.761 E6.12764
G1 X98.406 Y88.761 E6.25449
G1 X96.881 Y86.12 E6.37584
;WIDTH:0.523284
G1 X96.812 Y86 E6.38137
G1 X98.406 Y83.239 E6.50871
;WIDTH:0.521458
G1 X101.594 Y83.239 E6.63556
G1 X103.148 Y85.931 E6.75924
G1 X103.007 Y86.305 F7800
G1 E.75924 F1800
G92 E0
G1 X92.785 Y85.983 F7800
G1 E6 F1800
;WIDTH:0.595489
G1 F600
G1 X92.796 Y86 E6.00093
G1 X92.033 Y87.321 E6.07102
;WIDTH:0.558475
G1 X91.271 Y88.641 E6.13636
;WIDTH:0.52146
G1 X91.202 Y88.761 E6.14187
G1 X88.152 Y88.761 E6.26323
G1 X88.1 Y88.711 E6.2661
;WIDTH:0.480973
G1 X88.049 Y88.661 E6.2687
;WIDTH:0.440486
G1 X87.997 Y88.611 E6.27108
;WIDTH:0.399999
G1 X86.542 Y86.089 E6.35753
G1 X86.523 Y85.943 E6.3619
G1 X87.997 Y83.389 E6.44945
;WIDTH:0.440486
G1 X88.049 Y83.339 E6.45183
;WIDTH:0.480972
G1 X88.1 Y83.289 E6.45443
;WIDTH:0.521458
G1 X88.152 Y83.239 E6.4573
G1 X91.063 Y83.239 E6.57313
;WIDTH:0.558473
G1 X91.133 Y83.239 E6.57613
;WIDTH:0.595488
G1 X91.202 Y83.239 E6.5793
G1 X91.964 Y84.56 E6.64937
;WIDTH:0.558473
G1 X92.726 Y85.88 E6.71471
;WIDTH:0.559388
G1 X92.755 Y85.931 E6.71723
G1 X92.615 Y86.305 F7800
G1 X93.2 Y85.743
;WIDTH:0.595489
G1 F600
G1 X92.448 Y84.44 E6.78635
;WIDTH:0.558474
G1 X91.685 Y83.12 E6.85171
;WIDTH:0.521459
G1 X91.616 Y83 E6.85722
G1 X93.141 Y80.359 E6.97857
G1 X93.2 Y80.339 E6.98105
;WIDTH:0.480973
G1 X93.26 Y80.32 E6.98334
;WIDTH:0.440486
G1 X93.319 Y80.3 E6.9854
;WIDTH:0.399999
G1 X96.26 Y80.3 E7.07272
;WIDTH:0.440486
G1 X96.329 Y80.32 E7.07509
;WIDTH:0.480973
G1 X96.398 Y80.339 E7.0777
;WIDTH:0.521459
G1 X96.467 Y80.359 E7.08056
;WIDTH:0.558474
G1 X97.229 Y81.679 E7.1459
;WIDTH:0.595489
G1 X97.992 Y83 E7.21599
G1 X97.229 Y84.321 E7.28608
;WIDTH:0.558474
G1 X96.467 Y85.641 E7.35142
;WIDTH:0.521458
G1 X96.398 Y85.761 E7.35693
G1 X93.348 Y85.761 E7.47829
;WIDTH:0.558474
G1 X93.279 Y85.761 E7.48125
;WIDTH:0.595489
G1 X93.25 Y85.761 E7.48258
G1 X93.023 Y85.431 F7800
G1 E1.48258 F1800
G92 E0
G1 X103.088 Y79.999 F7800
G1 E6 F1800
;WIDTH:0.480973
G1 F600
G1 X103.101 Y80.05 E6.00192
;WIDTH:0.521459
G1 X103.119 Y80.12 E6.0048
G1 X101.594 Y82.761 E6.12615
G1 X98.406 Y82.761 E6.253
G1 X96.881 Y80.12 E6.37435
G1 X96.899 Y80.05 E6.37723
;WIDTH:0.480973
G1 X96.916 Y79.98 E6.37985
;WIDTH:0.440486
G1 X96.934 Y79.911 E6.38221
;WIDTH:0.399999
G1 X98.39 Y77.389 E6.46867
G1 X98.522 Y77.301 E6.47338
G1 X101.456 Y77.3 E6.56049
G1 X101.6 Y77.371 E6.56526
G1 X103.066 Y79.911 E6.65234
;WIDTH:0.440486
G1 X103.074 Y79.94 E6.65333
G1 X102.987 Y80.331 F7800
G1 E.65333 F1800
G92 E0
G1 X103.592 Y85.743 F7800
G1 E6 F1800
;WIDTH:0.521458
G1 F600
G1 X102.077 Y83.12 E6.12053
;WIDTH:0.558474
G1 X102.043 Y83.06 E6.12349
;WIDTH:0.595489
G1 X102.008 Y83 E6.12668
G1 X102.771 Y81.679 E6.19677
;WIDTH:0.558474
G1 X103.533 Y80.359 E6.26211
;WIDTH:0.521459
G1 X103.602 Y80.339 E6.26497
;WIDTH:0.480973
G1 X103.671 Y80.32 E6.26758
;WIDTH:0.440486
G1 X103.74 Y80.3 E6.26995
;WIDTH:0.399999
G1 X106.652 Y80.3 E6.35641
;WIDTH:0.440486
G1 X106.721 Y80.32 E6.35878
;WIDTH:0.480972
G1 X106.79 Y80.339 E6.36139
;WIDTH:0.521458
G1 X106.859 Y80.359 E6.36425
G1 X108.384 Y83 E6.4856
G1 X106.79 Y85.761 E6.61246
G1 X103.74 Y85.761 E6.73382
G1 X103.642 Y85.761 E6.73772
G1 X103.416 Y85.431 F7800
G1 E.73772 F1800
G92 E0
G1 X108.819 Y83.239 F7800
G1 E6 F1800
G1 F600
G1 X111.848 Y83.239 E6.12053
G1 X111.9 Y83.289 E6.1234
;WIDTH:0.480972
G1 X111.951 Y83.339 E6.126
;WIDTH:0.440486
G1 X112.003 Y83.389 E6.12838
;WIDTH:0.399999
G1 X113.458 Y85.911 E6.21483
G1 X113.477 Y86.043 E6.21879
G1 X112.003 Y88.611 E6.3067
;WIDTH:0.440486
G1 X111.951 Y88.661 E6.30908
;WIDTH:0.480973
G1 X111.9 Y88.711 E6.31168
;WIDTH:0.52146
G1 X111.848 Y88.761 E6.31455
G1 X108.798 Y88.761 E6.43591
G1 X107.274 Y86.12 E6.55724
;WIDTH:0.558473
G1 X107.239 Y86.06 E6.56022
;WIDTH:0.595488
G1 X107.204 Y86 E6.56341
G1 X108.001 Y84.62 E6.63663
;WIDTH:0.558473
G1 X108.778 Y83.274 E6.70325
G1 X109.177 Y83.243 F7800
G1 E.70325 F1800
G92 E0
G1 X108.788 Y89.257 F7800
G1 E6 F1800
;WIDTH:0.595489
G1 F600
G1 X108.798 Y89.239 E6.00095
G1 X110.323 Y89.239 E6.07102
;WIDTH:0.558475
G1 X111.848 Y89.239 E6.13639
;WIDTH:0.52146
G1 X111.9 Y89.289 E6.13926
;WIDTH:0.480973
G1 X111.951 Y89.339 E6.14186
;WIDTH:0.440486
G1 X112.003 Y89.389 E6.14424
;WIDTH:0.399999
G1 X113.458 Y91.911 E6.23069
G1 X113.47 Y92.065 E6.23528
G1 X112.003 Y94.611 E6.32252
;WIDTH:0.440486
G1 X111.951 Y94.661 E6.3249
;WIDTH:0.480972
G1 X111.9 Y94.711 E6.3275
;WIDTH:0.521458
G1 X111.848 Y94.761 E6.33037
G1 X108.798 Y94.761 E6.45173
G1 X107.204 Y92 E6.57859
G1 X108.729 Y89.359 E6.69994
;WIDTH:0.558473
G1 X108.758 Y89.309 E6.70242
G1 X109.153 Y89.243 F7800
G1 X108.374 Y89.017
;WIDTH:0.52146
G1 F600
G1 X106.79 Y91.761 E6.82849
G1 X103.74 Y91.761 E6.94985
;WIDTH:0.558474
G1 X103.671 Y91.761 E6.95281
;WIDTH:0.595488
G1 X103.602 Y91.761 E6.95598
G1 X102.84 Y90.44 E7.02605
;WIDTH:0.558473
G1 X102.077 Y89.12 E7.09141
;WIDTH:0.52146
G1 X102.008 Y89 E7.09692
G1 X103.602 Y86.239 E7.22378
G1 X106.79 Y86.239 E7.35063
G1 X108.364 Y88.966 E7.47592
G1 X108.192 Y89.326 F7800
G1 E1.47592 F1800
G92 E0
G1 X106.8 Y92.257 F7800
G1 E6 F1800
;WIDTH:0.595488
G1 F600
G1 X107.552 Y93.56 E6.06912
;WIDTH:0.558474
G1 X108.315 Y94.88 E6.13448
;WIDTH:0.521459
G1 X108.384 Y95 E6.13999
G1 X106.79 Y97.761 E6.26685
G1 X103.74 Y97.761 E6.38821
;WIDTH:0.558475
G1 X103.671 Y97.761 E6.39117
;WIDTH:0.595489
G1 X103.602 Y97.761 E6.39434
;WIDTH:0.521459
G1 X102.077 Y95.12 E6.51569
;WIDTH:0.558474
G1 X102.043 Y95.06 E6.51865
;WIDTH:0.595489
G1 X102.008 Y95 E6.52184
G1 X102.771 Y93.679 E6.59193
;WIDTH:0.558474
G1 X103.568 Y92.299 E6.66025
;WIDTH:0.595488
G1 X103.602 Y92.239 E6.66342
G1 X106.75 Y92.239 E6.80806
G1 X106.977 Y92.569 F7800
G1 E.80806 F1800
G92 E0
G1 X108.374 Y101.017 F7800
G1 E6 F1800
;WIDTH:0.521459
G1 F600
G1 X106.859 Y103.641 E6.12056
G1 X106.79 Y103.761 E6.12607
G1 X103.602 Y103.761 E6.25292
;WIDTH:0.558475
G1 X102.805 Y102.38 E6.32127
;WIDTH:0.59549
G1 X102.008 Y101 E6.39449
G1 X103.602 Y98.239 E6.54097
G1 X105.196 Y98.239 E6.61421
;WIDTH:0.558474
G1 X106.79 Y98.239 E6.68254
;WIDTH:0.521459
G1 X108.364 Y100.966 E6.80783
G1 X108.192 Y101.326 F7800
G1 E.80783 F1800
G92 E0
G1 X108.374 Y107.017 F7800
G1 E6 F1800
G1 F600
G1 X106.79 Y109.761 E6.12607
G1 X103.74 Y109.761 E6.24743
;WIDTH:0.558474
G1 X103.671 Y109.761 E6.25039
;WIDTH:0.595489
G1 X103.602 Y109.761 E6.25356
G1 X102.008 Y107 E6.40004
;WIDTH:0.559388
G1 X102.805 Y105.62 E6.46848
;WIDTH:0.595488
G1 X103.602 Y104.239 E6.54174
G1 X105.196 Y104.239 E6.61498
;WIDTH:0.558474
G1 X106.79 Y104.239 E6.68331
;WIDTH:0.521459
G1 X108.364 Y106.966 E6.8086
G1 X108.192 Y107.326 F7800
G1 E.8086 F1800
G92 E0
G1 X103.178 Y103.983 F7800
G1 E6 F1800
;WIDTH:0.595488
G1 F600
G1 X103.188 Y104 E6.00091
G1 X102.425 Y105.321 E6.071
;WIDTH:0.558474
G1 X101.663 Y106.641 E6.13634
;WIDTH:0.521459
G1 X101.594 Y106.761 E6.14185
G1 X98.406 Y106.761 E6.2687
;WIDTH:0.558475
G1 X97.609 Y105.38 E6.33705
;WIDTH:0.59549
G1 X96.812 Y104 E6.41027
G1 X97.575 Y102.679 E6.48036
;WIDTH:0.558475
G1 X98.337 Y101.359 E6.5457
;WIDTH:0.52146
G1 X98.406 Y101.239 E6.55121
G1 X101.456 Y101.239 E6.67257
;WIDTH:0.558475
G1 X101.525 Y101.239 E6.67553
;WIDTH:0.59549
G1 X101.594 Y101.239 E6.6787
G1 X102.356 Y102.56 E6.74877
;WIDTH:0.558475
G1 X103.148 Y103.931 E6.81664
G1 X103.007 Y104.305 F7800
G1 E.81664 F1800
G92 E0
G1 X93.2 Y109.743 F7800
G1 E6 F1800
;WIDTH:0.595488
G1 F600
G1 X91.616 Y107 E6.14553
G1 X92.378 Y105.679 E6.2156
;WIDTH:0.558475
G1 X93.175 Y104.299 E6.28392
;WIDTH:0.595488
G1 X93.21 Y104.239 E6.28711
G1 X96.398 Y104.239 E6.43359
G1 X97.16 Y105.56 E6.50366
;WIDTH:0.558475
G1 X97.957 Y106.94 E6.57198
;WIDTH:0.595489
G1 X97.992 Y107 E6.57517
G1 X97.229 Y108.321 E6.64526
;WIDTH:0.558474
G1 X96.467 Y109.641 E6.7106
;WIDTH:0.521459
G1 X96.398 Y109.761 E6.71611
G1 X93.348 Y109.761 E6.83747
;WIDTH:0.558474
G1 X93.279 Y109.761 E6.84043
;WIDTH:0.595488
G1 X93.25 Y109.761 E6.84176
G1 X93.023 Y109.431 F7800
G1 X92.785 Y110.017
;WIDTH:0.521459
G1 F600
G1 X91.202 Y112.761 E6.96781
G1 X88.152 Y112.761 E7.08917
G1 X88.1 Y112.711 E7.09204
;WIDTH:0.480973
G1 X88.049 Y112.661 E7.09464
;WIDTH:0.440486
G1 X87.997 Y112.611 E7.09702
;WIDTH:0.399999
G1 X86.542 Y110.089 E7.18347
G1 X86.523 Y109.943 E7.18784
G1 X87.997 Y107.389 E7.27539
;WIDTH:0.440486
G1 X88.049 Y107.339 E7.27777
;WIDTH:0.480973
G1 X88.1 Y107.289 E7.28037
;WIDTH:0.521459
G1 X88.152 Y107.239 E7.28324
G1 X91.202 Y107.239 E7.4046
G1 X92.726 Y109.88 E7.52593
G1 X92.776 Y109.965 E7.52985
G1 X92.603 Y110.326 F7800
G1 E1.52985 F1800
G92 E0
G1 X92.785 Y104.017 F7800
G1 E6 F1800
G1 F600
G1 X91.202 Y106.761 E6.12605
G1 X88.152 Y106.761 E6.24741
;WIDTH:0.523287
G1 X88.1 Y106.711 E6.25029
;WIDTH:0.482191
G1 X88.049 Y106.661 E6.2529
;WIDTH:0.441095
G1 X87.997 Y106.611 E6.25529
;WIDTH:0.399999
G1 X86.542 Y104.089 E6.34174
G1 X86.523 Y103.943 E6.34611
G1 X87.997 Y101.389 E6.43366
;WIDTH:0.440486
G1 X88.049 Y101.339 E6.43604
;WIDTH:0.480973
G1 X88.1 Y101.289 E6.43864
;WIDTH:0.521459
G1 X88.152 Y101.239 E6.44151
G1 X91.202 Y101.239 E6.56287
G1 X92.776 Y103.966 E6.68816
G1 X92.603 Y104.326 F7800
G1 E.68816 F1800
G92 E0
G1 X92.785 Y97.983 F7800
G1 E6 F1800
G1 F600
G1 X92.796 Y98 E6.00081
G1 X91.202 Y100.761 E6.12767
G1 X88.152 Y100.761 E6.24903
G1 X88.1 Y100.711 E6.2519
;WIDTH:0.480973
G1 X88.049 Y100.661 E6.2545
;WIDTH:0.440486
G1 X87.997 Y100.611 E6.25688
;WIDTH:0.399999
G1 X86.542 Y98.089 E6.34333
G1 X86.523 Y97.943 E6.3477
G1 X87.997 Y95.389 E6.43525
;WIDTH:0.440486
G1 X88.049 Y95.339 E6.43763
;WIDTH:0.480972
G1 X88.1 Y95.289 E6.44023
;WIDTH:0.521458
G1 X88.152 Y95.239 E6.4431
G1 X91.063 Y95.239 E6.55893
;WIDTH:0.558473
G1 X91.133 Y95.239 E6.56193
;WIDTH:0.595488
G1 X91.202 Y95.239 E6.5651
G1 X91.964 Y96.56 E6.63517
;WIDTH:0.558474
G1 X92.726 Y97.88 E6.70051
;WIDTH:0.521459
G1 X92.755 Y97.931 E6.70284
G1 X92.615 Y98.305 F7800
G1 E.70284 F1800
G92 E0
G1 X92.785 Y91.983 F7800
G1 E6 F1800
G1 F600
G1 X92.796 Y92 E6.00081
G1 X91.202 Y94.761 E6.12767
G1 X88.152 Y94.761 E6.24903
G1 X88.107 Y94.721 E6.25143
;WIDTH:0.480972
G1 X88.061 Y94.682 E6.25363
;WIDTH:0.440486
G1 X88.016 Y94.643 E6.2556
;WIDTH:0.399999
G1 X86.542 Y92.089 E6.34315
G1 X86.523 Y91.943 E6.34752
G1 X87.997 Y89.389 E6.43507
;WIDTH:0.440486
G1 X88.049 Y89.339 E6.43745
;WIDTH:0.480973
G1 X88.1 Y89.289 E6.44005
;WIDTH:0.52146
G1 X88.152 Y89.239 E6.44292
G1 X91.063 Y89.239 E6.55875
;WIDTH:0.558475
G1 X91.133 Y89.239 E6.56175
;WIDTH:0.59549
G1 X91.202 Y89.239 E6.56492
G1 X91.964 Y90.56 E6.63499
;WIDTH:0.558475
G1 X92.726 Y91.88 E6.70033
;WIDTH:0.521459
G1 X92.755 Y91.931 E6.70266
